rospo-light/16x16/actions/edit-clone.svg

<svg height="16" viewBox="0 0 16 16" width="16" xmlns="http://www.w3.org/2000/svg"><path d="m2 2v8h4v4h8v-8h-4v-4zm8 5c .739 0 1.333984.7802344 1.333984 1.7402344v.8320312h.332032c.185 0 .333984.1903344.333984.4277344v2.572266c0 .238-.148984.427734-.333984.427734h-3.3320316c-.1847 0-.3339844-.189734-.3339844-.427734v-2.572266c0-.2374.1492844-.4277344.3339844-.4277344h.3320312v-.8320312c0-.9603.5952844-1.7402344 1.3339844-1.7402344zm0 .8574219c-.3693 0-.6660156.3826219-.6660156.8574219v.8574218h1.3320316v-.8574218c0-.4748001-.297016-.8574219-.666016-.8574219z" fill="#5c616c"/></svg>

<?xml version="1.0" encoding="UTF-8" standalone="no"?>
<svg xmlns="http://www.w3.org/2000/svg" width="22" height="22" viewBox="0 0 22 22">
 <defs>
  <style type="text/css" id="current-color-scheme">
   .ColorScheme-Text { color:#5c616c; } .ColorScheme-Highlight { color:#5294e2; }
  </style>
 </defs>
 <path style="fill:currentColor;opacity:1" class="ColorScheme-Text" transform="translate(3 3)" d="M 2 2 L 2 10 L 6 10 L 6 14 L 14 14 L 14 6 L 10 6 L 10 2 L 2 2 z M 10 7 C 10.739 7 11.333984 7.7802344 11.333984 8.7402344 L 11.333984 9.5722656 L 11.666016 9.5722656 C 11.851016 9.5722656 12 9.7626 12 10 L 12 12.572266 C 12 12.810266 11.851016 13 11.666016 13 L 8.3339844 13 C 8.1492844 13 8 12.810266 8 12.572266 L 8 10 C 8 9.7626 8.1492844 9.5722656 8.3339844 9.5722656 L 8.6660156 9.5722656 L 8.6660156 8.7402344 C 8.6660156 7.7799344 9.2613 7 10 7 z M 10 7.8574219 C 9.6307 7.8574219 9.3339844 8.2400438 9.3339844 8.7148438 L 9.3339844 9.5722656 L 10.666016 9.5722656 L 10.666016 8.7148438 C 10.666016 8.2400437 10.369 7.8574219 10 7.8574219 z"/>
</svg>
